X: 21792
T: King's House, The
R: waltz
M: 3/4
K: Amixolydian
EAB|c2 e>c BA|a2 f2 a>f|e2 f>e cA|B4 cd|
ed G2 g>f|e>d d2 cd|e2 g2 BG|A3:|
Ace|a2 a2 fd|e>d c2 ef|g2 G2 d>c|B4 A/B/c/d/|
e2 ec BA|d>e f2 g>f|e2 d>c BA|A3:|

